src/assets/filled/Nexo.svg

<?xml version="1.0" encoding="UTF-8"?>
<svg width="24" height="24" viewBox="0 0 24 24" xmlns="http://www.w3.org/2000/svg">
 <path d="m22 6.2797v11.43c0 0.18-0.09 0.34-0.24 0.43l-2.89 1.73c-0.16 0.09-0.35 0.09-0.51 0l-9.61-5.59c-0.15-0.09-0.25-0.25-0.25-0.43v-1.33c0-0.39 0.41999-0.63 0.75999-0.43l8.49 5.09c0.33 0.2 0.76-0.04 0.76-0.43v-8.33c0-0.18-0.09-0.33999-0.24-0.42999l-4.08-2.45c-0.32-0.19-0.32-0.66 0-0.86l2.57-1.55c0.16-0.1 0.36-0.1 0.52 0l4.5 2.7c0.13 0.11 0.22 0.28 0.22 0.45z"/>
 <path d="m11.29 18.431-4.03 2.42c-0.16 0.1-0.35999 0.1-0.50999 0l-4.5-2.7c-0.15-0.09-0.24001-0.25-0.24001-0.43v-11.43c0-0.18 0.09001-0.34 0.24001-0.43l4.5-2.7c0.16-0.1 0.35999-0.1 0.50999 0l9.5 5.7c0.15 0.09 0.24 0.25 0.24 0.43v4.83c0 0.39-0.42 0.63-0.76 0.43l-8.49-5.09c-0.33-0.2-0.76 0.03999-0.76 0.42999v4.83c0 0.18 0.08999 0.34 0.23999 0.43l4.04 2.43c0.34 0.19 0.34 0.65 0.02 0.85z"/>
</svg>

<svg width="24" height="24" viewBox="0 0 24 24"  xmlns="http://www.w3.org/2000/svg">
<path d="M22 6.27968V17.7097C22 17.8897 21.91 18.0497 21.76 18.1397L18.87 19.8697C18.71 19.9597 18.52 19.9597 18.36 19.8697L8.75 14.2797C8.6 14.1897 8.5 14.0297 8.5 13.8497V12.5197C8.5 12.1297 8.91999 11.8897 9.25999 12.0897L17.75 17.1797C18.08 17.3797 18.51 17.1397 18.51 16.7497V8.41968C18.51 8.23968 18.42 8.07969 18.27 7.98969L14.19 5.53968C13.87 5.34968 13.87 4.87968 14.19 4.67968L16.76 3.12969C16.92 3.02969 17.12 3.02969 17.28 3.12969L21.78 5.82968C21.91 5.93968 22 6.10968 22 6.27968Z" />
<path d="M11.29 18.4309L7.26001 20.8509C7.10001 20.9509 6.90002 20.9509 6.75002 20.8509L2.25002 18.1509C2.10002 18.0609 2.01001 17.9009 2.01001 17.7209V6.29093C2.01001 6.11093 2.10002 5.95093 2.25002 5.86093L6.75002 3.16094C6.91002 3.06094 7.11001 3.06094 7.26001 3.16094L16.76 8.86093C16.91 8.95093 17 9.11093 17 9.29093V14.1209C17 14.5109 16.58 14.7509 16.24 14.5509L7.75002 9.46094C7.42002 9.26094 6.99002 9.50093 6.99002 9.89093V14.7209C6.99002 14.9009 7.08001 15.0609 7.23001 15.1509L11.27 17.5809C11.61 17.7709 11.61 18.2309 11.29 18.4309Z" />
</svg>
